X:1
T:Title
%%score ( 1 2 3 ) { 4 | 5 }
L:1/8
M:4/4
K:Eb
V:1 treble nm="Grand Piano, Staff"
V:2 treble 
V:3 treble 
V:4 bass nm="Choir Pad, Longwood"
V:5 bass 
V:1
 [B,G]4 [EG]2 [EA]2 | [EB]2 [DG]2 [CF]2 [CE]2 | [B,E]4 [B,D]4 | [B,E]8 | [EG]4 G2 [G=A]2 | %5
w: By~Joseph~Barnby,~1872 * *|||||
 [GB]2 [Fd]2 [Ec]2 G2 | [FB]4 [E=A]4 | [DB]8 | [DF]4 E2 [B,E]2 | A4 z4 | [EB]2 [EB]2 [EA]2 [GB]2 | %11
w: ||||||
 [Ac]8 | [Fd]4 [Ee]2 [EB]2 | [EA]2 [FA]2 [B,G]2 [_DB]2 | C4 z2 F2 | [B,G]8 |] %16
w: |||||
V:2
 x8 | x8 | x8 | x8 | x8 | x8 | x8 | x8 | x8 | C2 D2 [EG]4 | x8 | x8 | x8 | x8 | E6 z2 | x8 |] %16
V:3
 x8 | x8 | x8 | x8 | x8 | x8 | x8 | x8 | x8 | x8 | x8 | x8 | x8 | x8 | z4 C4 | x8 |] %16
V:4
 E,4 E,2 F,2 | G,2 B,2 A,2 G,2 | F,4 F,4 | G,8 | B,4[K:treble] E2 E2 | D2 B,2 G,2 E2 | D4 C4 | %7
 B,8 | B,4 B,2 G,2 | A,4 B,4 | G,2 G,2 A,2 _D2 | C8 | B,4 B,2 B,2 | C2 D2 E2 B,2 | B,4 A,4 | G,8 |] %16
V:5
 z4 C,2 C,2 | G,,2 G,,2 A,,2 A,,2 | B,,4 B,,4 | E,8 | E,4 C,2 C,2 | G,2 G,2 C,2 C,2 | F,4 F,4 | %7
 B,,8 | A,4 G,2 z2 | F,4 E,4 | _D,2 D,2 C,2 B,,2 | A,,8 | A,4 G,2 G,2 | F,2 B,,2 E,2 G,,2 | %14
 A,,4 A,,4 | E,8 |] %16

